public/illustrations/_file.svg

<svg width="277" height="232" viewBox="0 0 277 232" fill="none" xmlns="http://www.w3.org/2000/svg">
<path d="M250.374 65.0148C253.772 65.0148 255.755 66.7136 256.038 69.4037C256.321 72.2355 254.48 74.5008 251.082 75.0672C244.711 76.1999 238.198 77.1912 231.685 78.1823C229.844 78.4655 227.862 78.7487 226.021 78.8903C222.907 79.0319 220.783 77.4743 220.216 74.9258C220.075 74.2179 220.075 73.6513 220.216 72.9434C220.216 72.2354 220.641 71.6694 220.924 71.103C221.349 70.5367 221.774 70.1119 222.34 69.6872C222.906 69.2624 223.614 69.1208 224.181 68.9792C227.579 68.1297 230.977 67.5633 234.375 67.1386C239.33 66.289 244.286 65.581 249.242 64.873H250.374V65.0148Z" fill="#102185"/>
<path d="M92.6469 124.198C92.6469 125.331 92.3638 126.322 91.7974 127.313C91.2311 128.162 90.3815 128.87 89.2488 129.295C88.2577 129.72 87.2666 129.72 86.2755 129.295C85.2844 129.012 84.435 128.446 83.7271 127.596C83.0191 126.746 82.5942 125.897 82.1695 124.906C79.1961 116.836 76.2229 108.624 73.2496 100.412C72.9664 99.2789 72.6832 98.146 72.6832 97.0133C72.6832 96.0222 72.8248 95.0312 73.3912 94.3233C73.9575 93.4738 74.6654 92.9075 75.6565 92.6243C76.6476 92.1996 77.6388 92.1994 78.6299 92.4826C79.621 92.7658 80.4705 93.3323 81.1784 94.0402C81.8864 94.8897 82.3111 95.7391 82.7358 96.7302C85.8508 104.942 88.8241 113.296 91.939 121.649C92.2221 122.499 92.3638 123.49 92.5054 124.339L92.6469 124.198Z" fill="#102185"/>
<path d="M186.236 34.432C186.236 33.2993 186.519 32.3084 187.085 31.4589C187.652 30.6094 188.643 29.9014 189.634 29.6182C190.625 29.1934 191.616 29.1934 192.607 29.6182C193.598 29.9014 194.448 30.6094 195.014 31.4589C196.005 32.8747 196.713 34.2904 197.279 35.8478C198.695 39.1043 200.111 42.3608 201.244 45.7589C201.669 47.0331 201.669 48.3075 201.244 49.4402C200.819 50.7145 199.828 51.5639 198.695 52.1302C198.129 52.4134 197.421 52.555 196.855 52.555C196.147 52.555 195.58 52.5551 195.014 52.2719C194.448 52.1304 193.881 51.7057 193.315 51.2809C192.89 50.8562 192.465 50.2897 192.182 49.7233C190.059 45.1926 188.36 40.5203 186.377 35.9896C186.236 35.4232 186.094 34.8567 186.094 34.432H186.236Z" fill="#102185"/>
<path d="M37.0034 96.5888C35.3043 90.5006 33.6053 84.5539 31.7647 78.4657C29.4993 70.3953 27.0923 62.4663 24.6853 54.5375C24.4021 53.4048 23.9774 52.2722 23.8358 51.1395C23.5527 49.8653 23.6942 48.591 24.2606 47.5999C24.8269 46.4672 25.8181 45.6178 26.9508 45.193C28.5082 44.3435 30.2072 43.7771 32.0478 43.3523C78.0635 32.167 124.079 21.1233 170.095 10.0796C183.404 6.82313 196.713 3.70817 210.164 0.451695C215.119 -0.680993 216.96 0.168523 218.942 4.69927C224.606 17.7252 230.269 30.751 235.933 43.9185C236.499 45.1928 237.065 46.4671 237.773 47.883C241.596 47.4582 245.419 47.3166 249.242 46.7502C253.064 46.0423 257.029 46.3256 260.852 47.5999C264.675 48.7326 268.073 50.8563 270.904 53.5464C274.727 57.0861 275.718 61.617 276.001 66.4309C276.709 75.4924 275.294 84.4122 273.595 93.1905C269.489 114.57 265.382 136.091 261.276 157.471C260.427 162.143 259.294 166.815 258.162 171.346C258.02 172.479 257.454 173.611 256.604 174.319C255.755 175.169 254.764 175.735 253.631 176.018C238.764 180.266 223.898 184.655 209.031 189.186C164.29 202.778 119.548 216.512 74.807 230.388C69.5683 231.945 66.1703 231.945 61.9227 224.724C56.9671 216.37 52.4364 207.592 47.764 199.097C32.6142 171.346 17.6061 143.595 2.4563 115.844C1.74837 114.57 1.0404 113.154 0.474052 111.738C-0.941814 107.916 0.898777 105.367 4.8632 104.517C15.3406 102.252 25.6764 99.9868 36.0122 97.5798C36.437 97.4382 36.8618 97.155 37.2866 96.8719L37.0034 96.5888ZM77.0723 218.353C79.1962 217.786 80.3289 217.645 81.6031 217.22C102.558 210.849 123.513 204.335 144.468 197.964C177.74 187.77 210.872 177.576 244.145 167.523C245.56 167.24 246.976 166.532 247.967 165.399C248.959 164.267 249.666 162.851 249.666 161.435C251.224 152.657 253.064 143.878 254.764 134.958C258.162 117.119 261.56 99.4205 264.816 81.7222C265.949 76.342 266.232 70.6783 265.241 65.1564C264.958 63.1742 263.967 61.3337 262.409 59.9178C261.135 58.7851 259.719 57.9355 258.162 57.3692C256.604 56.8028 254.905 56.6614 253.206 56.803C242.587 58.2188 231.827 59.6348 221.208 61.1923C216.252 61.9002 212.995 65.1564 210.73 69.404C209.031 72.5189 207.615 75.6339 206.199 78.7488C205.633 80.1647 204.783 81.4389 203.651 82.5716C202.518 83.7042 201.244 84.5537 199.828 84.9784C198.695 85.4032 197.421 85.828 196.147 86.1112C170.378 93.4737 144.609 100.695 118.84 108.057C117.566 108.34 116.434 108.906 115.584 109.756C114.734 110.605 114.026 111.738 113.743 112.871C103.549 142.463 93.2133 172.054 83.0191 201.504C81.0369 206.884 79.1962 212.265 77.0723 218.353ZM135.264 92.6243C134.84 91.2084 134.557 90.3588 134.132 89.3677C129.884 78.0409 125.495 66.8557 121.106 55.5288C120.539 53.9714 120.115 52.4137 119.973 50.7147C119.973 49.7236 120.115 48.5911 120.681 47.7416C121.247 46.8921 122.097 46.1841 123.088 45.9009C124.079 45.6178 125.07 45.6178 126.061 45.9009C127.052 46.1841 127.902 46.892 128.61 47.5999C129.459 48.8742 130.167 50.2899 130.592 51.7057C134.981 63.0326 139.37 74.5012 143.76 85.8281C144.184 86.9608 144.751 88.0934 145.317 89.6508L160.608 85.2619L159.476 82.2885C155.087 70.9616 150.697 59.7762 146.45 48.5909C145.742 46.8919 145.459 45.1929 145.317 43.3523C145.317 42.3612 145.6 41.2284 146.167 40.3789C146.733 39.5294 147.582 38.8217 148.574 38.5385C149.565 38.2554 150.556 38.2554 151.689 38.5385C152.68 38.8217 153.529 39.5296 154.095 40.2375C154.803 41.3702 155.37 42.5027 155.794 43.6354C160.325 55.2455 164.714 66.8557 169.245 78.4657C169.67 79.74 170.378 80.8725 170.944 82.1467L182.271 78.7488C177.457 66.5724 172.785 54.6791 168.113 42.9275C167.546 41.6532 167.121 40.2373 166.838 38.963C166.838 37.8303 166.838 36.8393 167.546 35.8482C168.113 34.9987 168.962 34.1493 169.953 33.8661C170.944 33.4414 172.077 33.4414 173.068 33.583C174.059 33.8662 175.05 34.4325 175.758 35.282C176.608 36.5563 177.316 37.972 177.882 39.3878C182.271 50.29 186.519 61.0505 190.766 71.9526C191.333 73.3685 191.899 74.6428 192.465 75.9171C193.598 75.9171 194.589 75.634 195.58 74.926C196.572 74.2181 197.138 73.3684 197.421 72.2357C198.27 69.8288 199.686 67.7051 200.819 65.2981C204.783 56.9446 211.155 51.7059 220.5 50.4316C222.482 50.1484 224.464 49.5821 226.729 49.0158L210.022 10.5044L35.446 52.6971C43.9411 89.6511 57.9582 124.34 71.6921 159.595C75.9397 158.462 79.9041 157.187 84.0101 156.479C86.8419 155.913 88.1161 154.497 88.9657 151.949C94.0628 137.082 99.1599 122.074 104.399 107.208C104.823 105.367 105.673 103.526 106.806 102.11C108.646 100.27 108.221 98.8541 107.513 96.8719C103.549 85.545 99.5846 74.0764 95.6202 62.7495C95.1954 61.6168 94.7708 60.3428 94.4876 59.0685C94.2044 57.7942 94.4876 56.6615 95.054 55.5288C95.6203 54.3962 96.6113 53.5464 97.744 53.1216C98.8767 52.6968 100.151 52.6968 101.284 53.1216C102.416 53.5464 103.407 54.3962 103.974 55.5288C104.54 56.5199 104.965 57.6524 105.248 58.785C109.354 70.3951 113.319 82.0053 117.425 93.6153C117.849 94.748 118.274 95.7392 118.84 96.8719L134.981 92.3412L135.264 92.6243ZM13.0753 113.437C31.1984 146.852 49.1798 179.841 67.1613 212.831H68.0109C73.108 197.823 78.205 183.098 83.5853 167.665C79.1961 168.798 75.6565 169.647 72.1168 170.497C67.0197 171.771 64.8959 170.496 62.9137 165.682C62.6305 164.975 62.3474 164.267 62.0642 163.559C55.4096 146.144 48.7551 128.587 42.1005 111.03C41.5342 109.615 40.9678 108.199 40.4015 106.924L13.2168 113.579L13.0753 113.437Z" fill="#102185"/>
</svg>

<svg xmlns="http://www.w3.org/2000/svg" width="277" height="232" fill="none" viewBox="0 0 277 232"><path fill="#102185" d="M250.374 65.015c3.398 0 5.381 1.699 5.664 4.389.283 2.832-1.558 5.097-4.956 5.663-6.371 1.133-12.884 2.124-19.397 3.115-1.841.284-3.823.567-5.664.708-3.114.142-5.238-1.416-5.805-3.964a4.7 4.7 0 0 1 0-1.983c0-.708.425-1.274.708-1.84.425-.566.85-.991 1.416-1.416s1.274-.566 1.841-.708c3.398-.85 6.796-1.416 10.194-1.84 4.955-.85 9.911-1.558 14.867-2.266h1.132zM92.647 124.198c0 1.133-.283 2.124-.85 3.115-.566.849-1.415 1.557-2.548 1.982q-1.486.638-2.974 0-1.486-.424-2.548-1.699c-.708-.85-1.133-1.699-1.558-2.69-2.973-8.07-5.946-16.282-8.92-24.494-.283-1.133-.566-2.266-.566-3.399 0-.99.142-1.982.708-2.69.566-.85 1.274-1.415 2.265-1.699.992-.424 1.983-.425 2.974-.141.991.283 1.84.85 2.548 1.557.708.85 1.133 1.7 1.558 2.69 3.115 8.212 6.088 16.566 9.203 24.919.283.85.425 1.841.566 2.69zM186.236 34.432q0-1.7.849-2.973c.567-.85 1.558-1.558 2.549-1.84q1.487-.639 2.973 0c.991.282 1.841.99 2.407 1.84a18.5 18.5 0 0 1 2.265 4.389c1.416 3.256 2.832 6.513 3.965 9.91.425 1.275.425 2.55 0 3.682-.425 1.275-1.416 2.124-2.549 2.69a4.36 4.36 0 0 1-1.84.425c-.708 0-1.275 0-1.841-.283-.566-.142-1.133-.566-1.699-.991a6.3 6.3 0 0 1-1.133-1.558c-2.123-4.53-3.822-9.203-5.805-13.733-.141-.567-.283-1.133-.283-1.558z"/><path fill="#102185" d="M37.003 96.589c-1.699-6.088-3.398-12.035-5.238-18.123-2.266-8.07-4.673-16-7.08-23.928-.283-1.133-.708-2.266-.85-3.398-.282-1.275-.14-2.549.426-3.54a4.97 4.97 0 0 1 2.69-2.407c1.557-.85 3.256-1.416 5.097-1.84 46.016-11.186 92.031-22.23 138.047-33.273 13.309-3.257 26.618-6.372 40.069-9.628 4.955-1.133 6.796-.283 8.778 4.247 5.664 13.026 11.327 26.052 16.991 39.22.566 1.274 1.132 2.548 1.84 3.964 3.823-.425 7.646-.566 11.469-1.133 3.822-.708 7.787-.424 11.61.85 3.823 1.133 7.221 3.256 10.052 5.946 3.823 3.54 4.814 8.071 5.097 12.885.708 9.061-.707 17.981-2.406 26.76-4.106 21.379-8.213 42.9-12.319 64.28-.849 4.672-1.982 9.344-3.114 13.875-.142 1.133-.708 2.265-1.558 2.973a6.3 6.3 0 0 1-2.973 1.699 2656 2656 0 0 0-44.6 13.168 24204 24204 0 0 0-134.224 41.202c-5.239 1.557-8.637 1.557-12.884-5.664-4.956-8.354-9.487-17.132-14.159-25.627-15.15-27.751-30.158-55.502-45.308-83.253-.708-1.274-1.416-2.69-1.982-4.106-1.416-3.822.425-6.371 4.39-7.221 10.477-2.265 20.812-4.53 31.148-6.937.425-.142.85-.425 1.275-.708zm40.07 121.764c2.123-.567 3.256-.708 4.53-1.133 20.955-6.371 41.91-12.885 62.865-19.256 33.272-10.194 66.404-20.388 99.677-30.441 1.415-.283 2.831-.991 3.822-2.124.992-1.132 1.699-2.548 1.699-3.964 1.558-8.778 3.398-17.557 5.098-26.477 3.398-17.839 6.796-35.537 10.052-53.236 1.133-5.38 1.416-11.044.425-16.566-.283-1.982-1.274-3.822-2.832-5.238a13.1 13.1 0 0 0-4.247-2.549c-1.558-.566-3.257-.708-4.956-.566-10.619 1.416-21.379 2.832-31.998 4.39-4.956.707-8.213 3.963-10.478 8.211-1.699 3.115-3.115 6.23-4.531 9.345q-.85 2.124-2.548 3.823c-1.133 1.132-2.407 1.982-3.823 2.406-1.133.425-2.407.85-3.681 1.133-25.769 7.363-51.538 14.584-77.307 21.946-1.274.283-2.406.849-3.256 1.699-.85.849-1.558 1.982-1.841 3.115-10.194 29.592-20.53 59.183-30.724 88.633-1.982 5.38-3.823 10.761-5.947 16.849m58.191-125.729c-.424-1.416-.707-2.265-1.132-3.256-4.248-11.327-8.637-22.512-13.026-33.84-.567-1.557-.991-3.114-1.133-4.813 0-.991.142-2.124.708-2.973.566-.85 1.416-1.558 2.407-1.841a5.3 5.3 0 0 1 2.973 0c.991.283 1.841.991 2.549 1.699.849 1.274 1.557 2.69 1.982 4.106 4.389 11.327 8.778 22.795 13.168 34.122.424 1.133.991 2.265 1.557 3.823l15.291-4.39-1.132-2.972c-4.389-11.327-8.779-22.513-13.026-33.698-.708-1.7-.991-3.398-1.133-5.239 0-.99.283-2.124.85-2.973.566-.85 1.415-1.557 2.407-1.84.991-.284 1.982-.284 3.115 0 .991.283 1.84.99 2.406 1.698a19 19 0 0 1 1.699 3.398c4.531 11.61 8.92 23.22 13.451 34.83.425 1.275 1.133 2.407 1.699 3.682l11.327-3.398c-4.814-12.177-9.486-24.07-14.158-35.821-.567-1.275-.992-2.69-1.275-3.965 0-1.133 0-2.124.708-3.115.567-.85 1.416-1.699 2.407-1.982.991-.425 2.124-.425 3.115-.283.991.283 1.982.85 2.69 1.699.85 1.274 1.558 2.69 2.124 4.106a3097 3097 0 0 1 12.884 32.565c.567 1.415 1.133 2.69 1.699 3.964 1.133 0 2.124-.283 3.115-.991s1.558-1.558 1.841-2.69c.849-2.407 2.265-4.53 3.398-6.938 3.964-8.353 10.336-13.592 19.681-14.866 1.982-.284 3.964-.85 6.229-1.416l-16.707-38.512L35.446 52.697c8.495 36.954 22.512 71.643 36.246 106.898 4.248-1.133 8.212-2.408 12.318-3.116 2.832-.566 4.106-1.982 4.956-4.53 5.097-14.867 10.194-29.875 15.433-44.741.424-1.841 1.274-3.682 2.407-5.098 1.84-1.84 1.415-3.256.707-5.238-3.964-11.327-7.928-22.796-11.893-34.122-.425-1.133-.85-2.407-1.132-3.681-.284-1.275 0-2.408.566-3.54a4.97 4.97 0 0 1 2.69-2.407 5.08 5.08 0 0 1 3.54 0 4.97 4.97 0 0 1 2.69 2.407c.566.99.991 2.123 1.274 3.256 4.106 11.61 8.071 23.22 12.177 34.83a32 32 0 0 0 1.415 3.257l16.141-4.53zM13.075 113.437c18.123 33.415 36.105 66.404 54.086 99.394h.85c5.097-15.008 10.194-29.733 15.574-45.166-4.389 1.133-7.928 1.982-11.468 2.832-5.097 1.274-7.221-.001-9.203-4.815l-.85-2.123C55.41 146.144 48.755 128.587 42.1 111.03c-.566-1.415-1.132-2.831-1.699-4.106l-27.184 6.655z"/></svg>
